src/lib/packages/icons/src/assets/filled/comment-star.svg

<svg width="24" height="24" viewBox="0 0 24 24" fill="none" xmlns="http://www.w3.org/2000/svg">
<path d="M12 4C7.03 4 3 6.99998 3 12.001C3 14.121 3.72995 15.892 4.94995 17.212C4.79995 18.172 4.25992 19.272 3.16992 20.152C2.83992 20.432 3.02996 20.9819 3.45996 20.9919C4.87996 21.0419 7.06991 20.852 8.40991 19.422C9.50991 19.802 10.72 20.002 12 20.002C16.97 20.002 21 17.001 21 12.001C21 6.99998 16.97 4 12 4ZM16.106 11.489L14.5759 12.969C14.4639 13.077 14.4129 13.233 14.4399 13.386L14.79 15.411C14.861 15.822 14.4279 16.135 14.0559 15.942L12.22 14.984C12.082 14.912 11.918 14.912 11.781 14.984L9.94604 15.941C9.57404 16.135 9.13994 15.821 9.21094 15.41L9.56104 13.386C9.58704 13.233 9.53605 13.077 9.42505 12.969L7.89502 11.489C7.61402 11.217 7.76898 10.742 8.15698 10.687L10.2739 10.382C10.4279 10.36 10.5609 10.264 10.6299 10.125L11.5471 8.28198C11.7331 7.90798 12.2701 7.90798 12.4561 8.28198L13.373 10.125C13.442 10.264 13.575 10.36 13.729 10.382L15.8459 10.687C16.2329 10.742 16.387 11.217 16.106 11.489Z" fill="currentColor"/>
</svg>

<svg xmlns="http://www.w3.org/2000/svg" width="24" height="24" fill="none"><path fill="currentColor" d="M12 4c-4.97 0-9 3-9 8.001 0 2.12.73 3.891 1.95 5.211-.15.96-.69 2.06-1.78 2.94-.33.28-.14.83.29.84 1.42.05 3.61-.14 4.95-1.57 1.1.38 2.31.58 3.59.58 4.97 0 9-3.001 9-8.001C21 7 16.97 4 12 4Zm4.106 7.489-1.53 1.48a.466.466 0 0 0-.136.417l.35 2.025a.506.506 0 0 1-.734.531l-1.836-.958a.473.473 0 0 0-.439 0l-1.835.957a.506.506 0 0 1-.735-.531l.35-2.024a.472.472 0 0 0-.136-.417l-1.53-1.48a.47.47 0 0 1 .262-.802l2.117-.305a.471.471 0 0 0 .356-.257l.917-1.843a.508.508 0 0 1 .91 0l.916 1.843a.471.471 0 0 0 .356.257l2.117.305a.47.47 0 0 1 .26.802Z"/></svg>
